X: 17519
T: Hills Of Manchuria, The
R: waltz
M: 3/4
K: Eminor
"Em"B6-|B2G2A2|"B7"B6-|B6|A2B2^d2|g4f2|"Em"e6-|e6|
"Em"B2e2g2|^d4e2|"Am"f2e2c2|f4e2|"Em"B2e2f2|"B7"g4f2|1 "Em"e6-|e2 z4:|2 "Em"e6|- e2 B^ABc||
|:"B7"B3FF2-|F2G2A2|"Em"B6-|B2 d^cde|"D7"d3>AA2-|A2B2c2|"G"d6-|d4"B7"^d2|
"Em"e3BB2|((3BcB) ^A2B2|"Am"d4c2-|c2G2A2|"Em"B2A2G2|"B7"F4G2|1 "Em"E6-|E2 B^ABc:|2 "Em"E6-|E2 z4||
"Em"B6-|B2G2A2|"B7"B6-|B6|A2B2^d2|g4f2|"Em"e6-|e6|
"Em"B2e2g2|^d4e2|"Am"f2e2c2|f4e2|"Em"B2e2f2|"B7"g4f2|"Em"e6-|e2 e2^d2|
|:"E7"e4_f2|e4d2|"Am"d4c2|c2B2A2|"D7"d4e2|d4c2|"G"c2B2^A2|"B7"B6|
"Em"E2G2B2|e2g3f|"Am"{f}e2d2c2|e4c2|"Em"G2B2A2 "B7"F4G2|1 "Em"E6-|E2 e2^d2:|2 "Em"E6- E2z4||

